X:14
T:Scatter the Mud
R:jig
O:Ireland
M:6/8
L:1/8
K:Am
d | "Am" eAA  B2 A | eAA     ABd | eAA    B2    A | "G" dBG GBd | 
    "Am" eAA  B2 A | eAA     AGE | "G" GAB    Bge | dBA      A2 :| 
d | "Am" eaa   egg | "G" dBA ABd | "Am" eaa   egg | "G" dBG GBd |
    "Am" ea^f g2 e | "G" dBA AGE | "(Em)" GAB Bge | "G" dBA  A2 :|
